src/pos-icons/chart-sankey.svg

<svg height="24" viewBox="0 0 24 24" width="24" xmlns="http://www.w3.org/2000/svg"><path d="m22 5h-18v-3h-2v20h20v-2h-18v-11c4.09 0 6.13 2 8.29 4.21s4.8 4.79 9.71 4.79v-2c-4.09 0-6.13-2-8.29-4.21s-4.8-4.79-9.71-4.79h18z"/></svg>

<?xml version="1.0" encoding="UTF-8"?><!DOCTYPE svg PUBLIC "-//W3C//DTD SVG 1.1//EN" "http://www.w3.org/Graphics/SVG/1.1/DTD/svg11.dtd"><svg xmlns="http://www.w3.org/2000/svg" xmlns:xlink="http://www.w3.org/1999/xlink" version="1.1" id="mdi-chart-sankey" width="24" height="24" viewBox="0 0 24 24"><path d="M22 5H4V2H2V22H22V20H4V9C8.09 9 10.13 11 12.29 13.21S17.09 18 22 18V16C17.91 16 15.87 14 13.71 11.79S8.91 7 4 7H22Z" /></svg>
